icons/hq21-fh-stalactite_fixed.svg

<?xml version="1.0" encoding="UTF-8" standalone="no"?>
<svg
   width="19.657"
   height="19.657"
   viewBox="0 0 19.657 19.657"
   version="1.1"
   xml:space="preserve"
   style="clip-rule:evenodd;fill-rule:evenodd;stroke-linejoin:round;stroke-miterlimit:2"
   id="svg11"
   sodipodi:docname="hq21-fh-stalactite_fixed.svg"
   inkscape:version="1.1.1 (3bf5ae0d25, 2021-09-20)"
   xmlns:inkscape="http://www.inkscape.org/namespaces/inkscape"
   xmlns:sodipodi="http://sodipodi.sourceforge.net/DTD/sodipodi-0.dtd"
   xmlns="http://www.w3.org/2000/svg"
   xmlns:svg="http://www.w3.org/2000/svg"><defs
   id="defs15" /><sodipodi:namedview
   id="namedview13"
   pagecolor="#ffffff"
   bordercolor="#666666"
   borderopacity="1.0"
   inkscape:pageshadow="2"
   inkscape:pageopacity="0.0"
   inkscape:pagecheckerboard="0"
   showgrid="false"
   inkscape:zoom="39.333333"
   inkscape:cx="9.7881356"
   inkscape:cy="9.6864407"
   inkscape:window-width="1920"
   inkscape:window-height="1012"
   inkscape:window-x="-8"
   inkscape:window-y="-8"
   inkscape:window-maximized="1"
   inkscape:current-layer="svg11" />
    <g
   id="g9">
        <g
   id="Page-1">
            <g
   id="stalactite">
                <g
   id="fh-stalactiteHQ21">
                    <g
   id="Group-9872"
   transform="rotate(90,9.828,9.828)">
                        <rect
   id="Fill-9870"
   x="0"
   y="-0.001"
   width="19.657"
   height="19.657"
   style="fill:#cd7c5f" />
                    </g>
                    <g
   id="Group-9875"
   transform="rotate(90,8.72465,9.35425)">
                        <path
   id="Fill-9873"
   d="m 5.653,11.322 c 0.495,0.059 0.672,0.407 0.478,0.857 -0.386,0.892 -1.119,1.46 -2.023,1.738 C 3.934,13.971 3.44,13.61 3.414,13.4 3.327,12.716 4.884,11.304 5.653,11.322 Z M 7.403,10.69 C 7.22,10.647 6.974,10.276 6.993,10.078 7.045,9.541 8.569,8.427 9.281,8.457 9.357,8.61 9.576,8.843 9.567,9.065 9.538,9.748 8.084,10.848 7.403,10.69 Z M 13.16,5.298 C 12.647,6.691 11.36,6.709 10.219,7.47 10.833,5.805 11.611,5.264 13.16,5.298 Z M 0,13.075 c 0.004,0.927 0.008,2.453 0.014,3.38 0.002,0.373 10e-4,0.816 0.457,0.903 0.397,0.076 0.427,-0.344 0.543,-0.611 0.04,-0.093 0.073,-0.197 0.138,-0.268 0.514,-0.559 1.035,-1.11 2.113,-1.113 -0.311,0.662 -0.542,1.155 -0.813,1.732 0.775,0.517 1.562,0.115 2.331,0.268 -0.085,-0.877 0.318,-1.455 0.964,-1.903 0.222,-0.153 0.429,-0.335 0.667,-0.454 0.639,-0.32 1.059,-0.816 1.31,-1.474 0.39,-1.02 1.063,-1.789 2.052,-2.266 0.72,-0.348 1.166,-0.898 1.278,-1.701 0.145,-1.043 0.793,-1.639 1.707,-2.083 0.562,-0.273 1.178,-0.623 1.524,-1.112 0.827,-1.17 1.585,-2.375 2.514,-3.485 0.515,-0.614 0.814,-1.45 1.382,-2.083 C 18.376,0.588 18.555,0.302 18.227,0 17.687,0.25 17.17,0.585 16.603,0.731 15.498,1.016 14.693,1.639 13.997,2.52 13.636,2.977 13.114,3.329 12.613,3.645 12.132,3.948 11.573,4.124 11.066,4.39 9.83,5.037 8.679,5.813 7.932,7.024 7.158,8.28 6.117,9.169 4.73,9.656 4.05,9.895 3.532,10.351 3.33,11.021 2.881,12.519 1.574,12.551 0.474,12.969 Z"
   style="fill:#521628" />
                    </g>
                </g>
            </g>
        </g>
    </g>
</svg>

<?xml version="1.0" encoding="UTF-8" standalone="no"?>
<!DOCTYPE svg PUBLIC "-//W3C//DTD SVG 1.1//EN" "http://www.w3.org/Graphics/SVG/1.1/DTD/svg11.dtd">
<svg width="100%" height="100%" viewBox="0 0 20 21" version="1.1" xmlns="http://www.w3.org/2000/svg" xmlns:xlink="http://www.w3.org/1999/xlink" xml:space="preserve" xmlns:serif="http://www.serif.com/" style="fill-rule:evenodd;clip-rule:evenodd;stroke-linejoin:round;stroke-miterlimit:2;">
    <g transform="matrix(1,0,0,1,0.19098,0.80902)">
        <g id="Page-1">
            <g id="stalactite">
                <g id="fh-stalactiteHQ21">
                    <g id="Group-9872" transform="matrix(-3.82857e-16,1,-1,-3.82857e-16,19.656,4.16355e-15)">
                        <path id="Fill-9870" d="M0,19.656L19.657,19.656L19.657,-0.001L0,-0.001L0,19.656Z" style="fill:rgb(205,124,95);"/>
                    </g>
                    <g id="Group-9875" transform="matrix(-3.82857e-16,1,-1,-3.82857e-16,18.0789,1.6296)">
                        <path id="Fill-9873" d="M5.653,11.322C6.148,11.381 6.325,11.729 6.131,12.179C5.745,13.071 5.012,13.639 4.108,13.917C3.934,13.971 3.44,13.61 3.414,13.4C3.327,12.716 4.884,11.304 5.653,11.322ZM7.403,10.69C7.22,10.647 6.974,10.276 6.993,10.078C7.045,9.541 8.569,8.427 9.281,8.457C9.357,8.61 9.576,8.843 9.567,9.065C9.538,9.748 8.084,10.848 7.403,10.69ZM13.16,5.298C12.647,6.691 11.36,6.709 10.219,7.47C10.833,5.805 11.611,5.264 13.16,5.298ZM-0,13.075C0.004,14.002 0.008,15.528 0.014,16.455C0.016,16.828 0.015,17.271 0.471,17.358C0.868,17.434 0.898,17.014 1.014,16.747C1.054,16.654 1.087,16.55 1.152,16.479C1.666,15.92 2.187,15.369 3.265,15.366C2.954,16.028 2.723,16.521 2.452,17.098C3.227,17.615 4.014,17.213 4.783,17.366C4.698,16.489 5.101,15.911 5.747,15.463C5.969,15.31 6.176,15.128 6.414,15.009C7.053,14.689 7.473,14.193 7.724,13.535C8.114,12.515 8.787,11.746 9.776,11.269C10.496,10.921 10.942,10.371 11.054,9.568C11.199,8.525 11.847,7.929 12.761,7.485C13.323,7.212 13.939,6.862 14.285,6.373C15.112,5.203 15.87,3.998 16.799,2.888C17.314,2.274 17.613,1.438 18.181,0.805C18.376,0.588 18.555,0.302 18.227,0C17.687,0.25 17.17,0.585 16.603,0.731C15.498,1.016 14.693,1.639 13.997,2.52C13.636,2.977 13.114,3.329 12.613,3.645C12.132,3.948 11.573,4.124 11.066,4.39C9.83,5.037 8.679,5.813 7.932,7.024C7.158,8.28 6.117,9.169 4.73,9.656C4.05,9.895 3.532,10.351 3.33,11.021C2.881,12.519 1.574,12.551 0.474,12.969L-0,13.075Z" style="fill:rgb(82,22,40);"/>
                    </g>
                </g>
            </g>
        </g>
    </g>
</svg>
